X:1
T: Green Christmas
R: jig
C: Rick Gagne
N: 1999? on whistle
N: no G or G# notes
D: Frank Claudy
M: 6/8
Q: 1/4=165
K: F#m
c | "F#m"FcB Ace | "D"fed "F#m"cBA | "E"EBA "A"cBA | "D"DAF "Bm"dcB |
"F#m"FcB AB/c/e | "D"fed "F#m"cBA | "E"EBA "A"cBA |1 "D"D2D d2 :|\
[2 "D"D2D d2c ||
"F#m"fcf f2a | "D"fed "F#m"cBA | fcf "E"e~e2 | "D"dAd "C#m"cde |
"Bm"fed cBA | "D"FaA fed | "F#m"cBA "C#m"Bce |1 "F#m"f~f2 f2a :|\
[2 "F#m"f2f f2 ||
